!!!!SEGMENT: pl-wtm--a-43-196-99--001-004_kazuro-stanislaw--25-piesni-dzieciecych-z-fortepianem-op-49-marsz.krn
!!!cenid: 19xx:200
!!!COM: Kazuro, Stanisław
!!!COM-rismID: pe50047136
!!!CDT: 1881/08/02-1961/11/30
!!!CNT: Polish
!!!GTL: 25 Pieśni dziecięcych z fortepianem, op. 49
!!!OTL: Marsz
!!!OMV: 004
!!!PDT: 1950
!!!AGN:
!!!YEC: Copyright 2022 Narodowy Instytut Fryderyka Chopina (https://polishscores.org)
!!!YEM: License CC-BY-4.0 (https://creativecommons.org/licenses/by/4.0)
!!!SMS-siglum: PL-Wtm
!!!SMS-shelfmark: A-43.196/99
!!!SMS-variant:
!!!SMS-altvar:
!!!SMS-shelfwork: 001-004 G
!!!NIFC-rismSourceID: 1001164821
!!!NIFC-rismChildID: 1001164821
!!!NIFC-islandoraID: pl-wtm:43198
!!!URL-pdf-islandora: https://repozytorium.nifc.pl/islandora/object/pl-wtm:43198/datastream/PDF/view
!!!URL-scan: https://polish.musicsources.pl/pl/lokalizacje/galeria/druki-muzyczne/22428/6 @EN{Scan on Polish Music Sources Website} @PL{Skany w portalu Dziedzictwo Muzyki Polskiej w otwartym dostępie}
!!!IIIF:
!!!ONB-nifc:
!!!AIN: 1 piano 1 vox
!!!key: C
!!!OMD: Tempo di marcia.
**kern	**kern	**dynam	**kern	**text	**text	**text	**dynam
*part2	*part2	*part2	*part1	*part1	*part1	*part1	*part1
*staff3	*staff2	*staff2/3	*staff1	*staff1	*staff1	*staff1	*staff1
*I"[Piano]	*I"[Piano]	*	*I"[Voice]	*	*	*	*
*I'[pf]	*I'[pf]	*	*I'[V]	*	*	*	*
*Ipiano	*Ipiano	*	*Ivox	*	*	*	*
*ICklav	*ICklav	*	*ICvox	*	*	*	*
*IGacmp	*IGacmp	*	*IGsolo	*	*	*	*
*>[A,A,A]	*>[A,A,A]	*>[A,A,A]	*>[A,A,A]	*>[A,A,A]	*>[A,A,A]	*>[A,A,A]	*>[A,A,A]
*>A	*>A	*>A	*>A	*>A	*>A	*>A	*>A
*clefF4	*clefG2	*	*clefG2	*	*	*	*
*k[]	*k[]	*	*k[]	*	*	*	*
*C:	*C:	*	*C:	*	*	*	*
*M2/4	*M2/4	*	*M2/4	*	*	*	*
=1	=1	=1	=1	=1	=1	=1	=1
!	!	!	!LO:TX:a:rj:t=Słowa Or-Ota	!	!	!	!
4e 4G 4C\	16g/LL	f	2r	.	.	.	.
!	!LO:TX:b:i:t=Trąbka	!	!	!	!	!	!
.	.	.	.	.	.	.	.
.	16cc/	.	.	.	.	.	.
.	16ee/	.	.	.	.	.	.
.	16cc/JJ	.	.	.	.	.	.
4A 4C 4FF/	16gg\LL	.	.	.	.	.	.
.	16cc\	.	.	.	.	.	.
.	16ee\	.	.	.	.	.	.
.	16cc\JJ	.	.	.	.	.	.
=2	=2	=2	=2	=2	=2	=2	=2
4e 4G 4C\	16g/LL	.	2r	.	.	.	.
.	16cc/	.	.	.	.	.	.
.	16ee/	.	.	.	.	.	.
.	16cc/JJ	.	.	.	.	.	.
4A 4C 4FF/	16gg\LL	.	.	.	.	.	.
.	16cc\	.	.	.	.	.	.
.	16ee\	.	.	.	.	.	.
.	16cc\JJ	.	.	.	.	.	.
!!LO:LB:g=original
=3	=3	=3	=3	=3	=3	=3	=3
4e 4G 4C\	8aa\	.	2r	.	.	.	.
.	4gg\	.	.	.	.	.	.
4a-X 4c 4F\	.	.	.	.	.	.	.
.	(16ee\LL	.	.	.	.	.	.
.	16cc\JJ	.	.	.	.	.	.
=4	=4	=4	=4	=4	=4	=4	=4
*^	*	*	*	*	*	*	*
8g-X^/	2G\	2gn/)	.	2r	.	.	.	.
4f/	.	.	.	.	.	.	.	.
8d-X/	.	.	.	.	.	.	.	.
*v	*v	*	*	*	*	*	*	*
=5	=5	=5	=5	=5	=5	=5	=5
*	*	*	*	*v:1	*v:2	*v:3	*
8.CL 8.CC/	8.ccL 8.g 8.e 8.c/	mf	8.c/	Hej,	Gra	Któż	mf
16BBJk 16BBB/	16ddJk 16dn/	.	16d/	pre-	ka-	tam	.
8AAL 8AAA/	8eeL 8cc 8g\	.	8e/	-ze-	-pe-	pę-	.
8AA-XJ 8AAA-X/	8ffJ 8f\	.	8f/	-ntuj	-la,	-dzi,	.
!!LO:LB:g=original
=6	=6	=6	=6	=6	=6	=6	=6
*^	*^	*	*	*	*	*	*
*	*	*	*^	*	*	*	*	*	*
*	*	*	*	*	*	*	*v:1	*v:2	*v:3	*
8.g/L	2GG 2GGG\	2gg/	4.cc\	8.ee/L	.	2g/	broń!	gra:	kto?	.
16f#X/Jk	.	.	.	16dd#X/Jk	.	.	.	.	.	.
4fn/	.	.	.	4ddn/	.	.	.	.	.	.
.	.	.	8b\	.	.	.	.	.	.	.
=7	=7	=7	=7	=7	=7	=7	=7	=7	=7	=7
!	!LO:SIC:v:s=[2GG [2GGG	!	!	!	!	!	!	!	!	!
4r	(<2GG [2GGG\	8aa/L	4ryy	4cc 4a\	.	8a/	I	Bum!	Hej!	.
.	.	8ff/J	.	.	.	8f/	da-	bum!	to	.
4f^/	.	8ee/L	8g#X\L	4cc\	.	8c/	-lej	tra-	wro-	.
.	.	8dd/J	8a\J	.	.	8a/	na	-ta-	-gi	.
*	*	*	*v	*v	*	*	*	*	*	*
=8	=8	=8	=8	=8	=8	=8	=8	=8	=8
!	!LO:SIC:v:s=4GG] 4GGG]	!	!	!	!	!	!	!	!
4e,/	4FF) 4GGG\]	8.gg/L	4cc 4fn\	.	2g/	koń!	-ta!	są!	.
.	.	16ee/Jk	.	.	.	.	.	.	.
!	!	!LO:TX:t=P:problem=brak początku ligatury	!	!	!	!	!	!	!
4c/	4A\	[4cc 4g/	8f\L	.	.	.	.	.	.
.	.	.	8e\J	.	.	.	.	.	.
!!LO:PB:g=original
=9	=9	=9	=9	=9	=9	=9	=9	=9	=9
*	*	*	*	*	*	*v:1	*v:2	*v:3	*
4A/	4D\	4cc/]	8f\L	.	8f/	Do-	Hej!	W gó-	.
.	.	.	8d\J	.	8d/	-li-	żo-	-rę	.
8B/L	4GG\	4b/	8gL 8d#X\	.	8g/	-na-	-łnie-	sza-	.
8A/J	.	.	8fJ 8dn\	.	8f/	-mi,	-rskie	-ble!	.
=10	=10	=10	=10	=10	=10	=10	=10	=10	=10
4E/	4AA\	8cc/L	4e 4c\	.	8e/	pa-	pły-	cze-	.
.	.	8g/J	.	.	8g/	-gó-	-ną	-kać	.
8G#X/L	4EE\	4e/	8c\L	.	8c/	-rka-	śpie-	zna-	.
8GnJ 8D/	.	.	8B\J	.	8e/	-mi	-wki,	-ku!	.
!!LO:LB:g=original
=11	=11	=11	=11	=11	=11	=11	=11	=11	=11
*	*	*	*	*	*	*v:1	*v:2	*v:3	*
4F/	4C 4FF\	8d/L	4A\	.	8d/	Po-	Szu-	W cwał!	.
.	.	8e/	.	.	8e/	-pę-	-mią	Czwó-	.
[4E/	4BB 4EE\	8f/	4G#X\	.	8f/	-dzi-	z wia-	-rka-	.
.	.	8d/J	.	.	8d/	-my	-trem	-mi	.
=12	=12	=12	=12	=12	=12	=12	=12	=12	=12
8E/L]	8AA\	(8e/L	8c\	.	8e/	szwa-	cho-	do	.
8A/J	8r	8f/	[4f\	.	8f/	-dro-	-rą-	a-	.
8B/L	4r	8g/	.	.	8g/	-na-	-gie-	-ta-	.
8d#X/J	.	8a/J)	8f\]	.	8a/	-mi.	-wki.	-ku!	.
*v	*v	*	*	*	*	*	*	*	*
=13	=13	=13	=13	=13	=13	=13	=13	=13
*	*	*	*	*	*	*v:1.2.3.	*	*
4r	4b 4g/	8.e\L	.	4b,\	.	Marsz!	.	.
.	.	16f\Jk	.	.	.	.	.	.
(8c#X\L	4g/	4f\	.	4g,/	.	marsz!	.	.
8d\J)	.	.	.	.	.	.	.	.
!!LO:LB:g=original
=14	=14	=14	=14	=14	=14	=14	=14	=14
8.cn\L	8.cc/L	8.gL 8.e\	.	2cc,\	.	marsz!	.	.
16A\Jk	16g/Jk	16fJk 16c\	.	.	.	.	.	.
(8A-X\L	8c/L	4B\	.	.	.	.	.	.
8G\J)	8B/J	.	.	.	.	.	.	.
=15	=15	=15	=15	=15	=15	=15	=15	=15
*^	*	*	*	*	*	*	*	*
8E/L	8CL 8CC\	(4.c/	8G\L	.	4c/	.	marsz!	.	.
8E-X/J	8AA-X\J	.	[8A-X\J	.	.	.	.	.	.
4F/	4D-X 4DD-X\	.	8A-\L]	.	4r	.	.	.	.
.	.	8B/	8B\J	.	.	.	.	.	.
*	*	*v	*v	*	*	*	*	*	*
=16	=16	=16	=16	=16	=16	=16	=16	=16
2G 2En/	2C 2CC\	2c/)	.	2r	.	.	.	.
*v	*v	*	*	*	*	*	*	*
=:|!	=:|!	=:|!	=:|!	=:|!	=:|!	=:|!	=:|!
*-	*-	*-	*-	*-	*-	*-	*-
!!!system-decoration: s1{(s2,s3)}
!!!RDF**kern: < = below
!!!ENC: Andrzej Gręziak
!!!END: 2025-03-27
!!!EED: Marta Lawrence
!!!EEV: 2025-04-01
